colormanagement/config.ocio
# Merged OpenColorIO configuration file for Blender
# Combines standard color management (SCM) settings with ACES 1.2 settings

ocio_profile_version: 1

search_path: "luts:filmic:aces"
strictparsing: true
luma: [0.2126, 0.7152, 0.0722]

description: Merges RRT version ut33 with an ACES config generated from python

# Default roles as defined in SCM settings
roles:
  color_picking: sRGB
  data: Non-Color
  default_byte: sRGB
  default_float: Linear
  default_sequencer: sRGB
  rendering: Linear
  reference: Linear
  scene_linear: Linear
  aces_interchange: Linear ACES

  # Specifed by OCIO, not used in Blender
  color_timing: Filmic Log
  compositing_log: Filmic Log
  default: Linear
  matte_paint: Linear
  texture_paint: Linear

displays:
  sRGB:
    - !<View> {name: Standard, colorspace: sRGB}
    - !<View> {name: Filmic, colorspace: Filmic sRGB}
    - !<View> {name: Filmic Log, colorspace: Filmic Log}
    - !<View> {name: Raw, colorspace: Raw}
    - !<View> {name: False Color, colorspace: False Color}
  XYZ:
    - !<View> {name: Standard, colorspace: XYZ}
    - !<View> {name: DCI, colorspace: dci_xyz}
    - !<View> {name: Raw, colorspace: Raw}
  None:
    - !<View> {name: Standard, colorspace: Raw}
  ACES:
    - !<View> {name: sRGB, colorspace: Output - sRGB}
    - !<View> {name: Rec.2020, colorspace: Output - Rec.2020}
    - !<View> {name: Rec.709, colorspace: Output - Rec.709}
    - !<View> {name: Raw, colorspace: Utility - Raw (Non-Color Textures)}
    - !<View> {name: Log, colorspace: Input - ADX - ADX10}

active_displays: [sRGB, XYZ, None, ACES]
active_views: [Standard, Filmic, Filmic Log, sRGB, Rec.2020, Rec.709, Raw, Log]

colorspaces:
  - !<ColorSpace>
    name: Linear
    family: linear
    equalitygroup:
    bitdepth: 32f
    description: |
      Rec. 709 (Full Range), Blender native linear space
    isdata: false
    allocation: lg2
    allocationvars: [-12.473931188, 12.526068812]

  - !<ColorSpace>
    name: Raw
    family: raw
    equalitygroup:
    bitdepth: 32f
    isdata: true
    allocation: uniform
    allocationvars: [0, 1]

  - !<ColorSpace>
    name: Linear ACES
    family: linear
    equalitygroup:
    bitdepth: 32f
    description: |
      ACES linear space
    isdata: false
    allocation: lg2
    allocationvars: [-8.5, 5]
    to_reference: !<FileTransform> {src: rec709_to_aces.spimtx, interpolation: linear, direction: inverse}

  - !<ColorSpace>
    name: nuke_rec709
    family: display
    equalitygroup:
    bitdepth: 32f
    description: |
      Rec. 709 (Full Range) Display Space
    isdata: false
    allocation: uniform
    allocationvars: [-0.125, 1.125]
    to_reference: !<GroupTransform>
      children:
        - !<FileTransform> {src: rec709.spi1d, interpolation: linear}

  - !<ColorSpace>
    name: XYZ
    family: linear
    equalitygroup:
    bitdepth: 32f
    isdata: false
    allocation: lg2
    allocationvars: [-8.5, 5]
    from_reference: !<GroupTransform>
      children:
        - !<FileTransform> {src: srgb_to_xyz.spimtx, interpolation: linear}

  - !<ColorSpace>
    name: dci_xyz
    family: display
    equalitygroup:
    bitdepth: 16f
    description: |
      OpenDCP output LUT with DCI reference white and Gamma 2.6
    isdata: false
    allocation: uniform
    allocationvars: [0, 1]
    from_reference: !<GroupTransform>
      children:
        - !<FileTransform> {src: srgb_to_xyz.spimtx, interpolation: linear}
        - !<FileTransform> {src: dci_xyz.spi1d, interpolation: linear}

  - !<ColorSpace>
    name: lg10
    family: display
    equalitygroup:
    bitdepth: 10ui
    description: |
      conversion from film log
    isdata: false
    allocation: uniform
    to_reference: !<GroupTransform>
      children:
        - !<FileTransform> {src: lg10.spi1d, interpolation: nearest}

  - !<ColorSpace>
    name: sRGB
    family:
    equalitygroup:
    bitdepth: 32f
    description: |
      Standard RGB Display Space
    isdata: false
    allocation: uniform
    allocationvars: [-0.125, 4.875]
    to_reference: !<FileTransform> {src: srgb.spi1d, interpolation: linear}
    from_reference: !<FileTransform> {src: srgb_inv.spi1d, interpolation: linear}

  - !<ColorSpace>
    name: Non-Color
    family: raw
    description: |
        Color space used for images which contains non-color data (i,e, normal maps)
    equalitygroup:
    bitdepth: 32f
    isdata: true
    allocation: uniform
    allocationvars: [0, 1]

  - !<ColorSpace>
    name: Filmic Log
    family: log
    equalitygroup:
    bitdepth: 32f
    description: |
      Log based filmic shaper with 16.5 stops of latitude, and 25 stops of dynamic range
    isdata: false
    allocation: lg2
    allocationvars: [-12.473931188, 12.526068812]
    from_reference: !<GroupTransform>
        children:
            - !<AllocationTransform> {allocation: lg2, vars: [-12.473931188, 12.526068812]}
            - !<FileTransform> {src: filmic_desat65cube.spi3d, interpolation: best}
            - !<AllocationTransform> {allocation: uniform, vars: [0, 0.66]}
    to_reference: !<AllocationTransform> {allocation: lg2, vars: [-12.473931188, 4.026068812], direction: inverse}

  - !<ColorSpace>
    name: Filmic sRGB
    family: display
    equalitygroup:
    bitdepth: 32f
    description: |
      Filmic sRGB view transform
    isdata: false
    allocation: lg2
    allocationvars: [-12.473931188, 12.526068812]
    from_reference: !<GroupTransform>
        children:
            - !<ColorSpaceTransform> {src: Linear, dst: Filmic Log}
            - !<FileTransform> {src: filmic_to_0-70_1-03.spi1d, interpolation: linear}

  - !<ColorSpace>
    name: False Color
    family: display
    equalitygroup:
    bitdepth: 32f
    description: |
      Filmic false color view transform
    isdata: false
    allocation: lg2
    allocationvars: [-12.473931188, 12.526068812]
    from_reference: !<GroupTransform>
        children:
            - !<ColorSpaceTransform> {src: Linear, dst: Filmic Log}
            - !<MatrixTransform> {matrix: [0.2126729, 0.7151521, 0.0721750, 0, 0.2126729, 0.7151521, 0.0721750, 0, 0.2126729, 0.7151521, 0.0721750, 0, 0, 0, 0, 1]}
            - !<FileTransform> {src: filmic_false_color.spi3d, interpolation: best}

  - !<ColorSpace>
    name: ACES - ACES2065-1
    family: ACES
    equalitygroup: ""
    bitdepth: 32f
    description: |
      The Academy Color Encoding System reference color space
    isdata: false
    allocation: lg2
    allocationvars: [-8, 5, 0.00390625]

  - !<ColorSpace>
    name: ACES - ACEScc
    family: ACES
    equalitygroup: ""
    bitdepth: 32f
    description: |
      The ACEScc color space

      ACES Transform ID : ACEScsc.Academy.ACEScc_to_ACES
    isdata: false
    allocation: uniform
    allocationvars: [-0.3584, 1.468]
    to_reference: !<GroupTransform>
      children:
        - !<FileTransform> {src: ACEScc_to_linear.spi1d, interpolation: linear}
        - !<MatrixTransform> {matrix: [0.695452, 0.140679, 0.163869, 0, 0.0447946, 0.859671, 0.0955343, 0, -0.00552588, 0.00402521, 1.0015, 0, 0, 0, 0, 1]}

  - !<ColorSpace>
    name: ACES - ACEScct
    family: ACES
    equalitygroup: ""
    bitdepth: 32f
    description: |
      The ACEScct color space

      ACES Transform ID : ACEScsc.Academy.ACEScct_to_ACES
    isdata: false
    allocation: uniform
    allocationvars: [-0.249136, 1.468]
    to_reference: !<GroupTransform>
      children:
        - !<FileTransform> {src: ACEScct_to_linear.spi1d, interpolation: linear}
        - !<MatrixTransform> {matrix: [0.695452, 0.140679, 0.163869, 0, 0.0447946, 0.859671, 0.0955343, 0, -0.00552588, 0.00402521, 1.0015, 0, 0, 0, 0, 1]}

  - !<ColorSpace>
    name: ACES - ACESproxy
    family: ACES
    equalitygroup: ""
    bitdepth: 32f
    description: |
      The ACESproxy color space

      ACES Transform ID : ACEScsc.Academy.ACESproxy10i_to_ACES
    isdata: false
    allocation: uniform
    allocationvars: [0, 1]
    to_reference: !<GroupTransform>
      children:
        - !<FileTransform> {src: ACESproxy_to_linear.spi1d, interpolation: linear}
        - !<MatrixTransform> {matrix: [0.695452, 0.140679, 0.163869, 0, 0.0447946, 0.859671, 0.0955343, 0, -0.00552588, 0.00402521, 1.0015, 0, 0, 0, 0, 1]}

  - !<ColorSpace>
    name: ACES - ACEScg
    family: ACES
    equalitygroup: ""
    bitdepth: 32f
    description: |
      The ACEScg color space

      ACES Transform ID : ACEScsc.Academy.ACEScg_to_ACES
    isdata: false
    allocation: lg2
    allocationvars: [-8, 5, 0.00390625]
    to_reference: !<MatrixTransform> {matrix: [0.695452, 0.140679, 0.163869, 0, 0.0447946, 0.859671, 0.0955343, 0, -0.00552588, 0.00402521, 1.0015, 0, 0, 0, 0, 1]}

  - !<ColorSpace>
    name: Input - ADX - ADX10
    family: Input/ADX
    equalitygroup: ""
    bitdepth: 10ui
    description: |
      ADX10 color space - used for film scans

      ACES Transform ID : ACEScsc.Academy.ADX10_to_ACES
    isdata: false
    allocation: uniform
    allocationvars: [0, 1]
    to_reference: !<GroupTransform>
      children:
        - !<MatrixTransform> {matrix: [2.046, 0, 0, 0, 0, 2.046, 0, 0, 0, 0, 2.046, 0, 0, 0, 0, 1], offset: [-0.19, -0.19, -0.19, 0]}
        - !<MatrixTransform> {matrix: [0.75573, 0.22197, 0.0223, 0, 0.05901, 0.96928, -0.02829, 0, 0.16134, 0.07406, 0.7646, 0, 0, 0, 0, 1]}
        - !<FileTransform> {src: ADX_CID_to_RLE.spi1d, interpolation: linear}
        - !<LogTransform> {base: 10, direction: inverse}
        - !<MatrixTransform> {matrix: [0.72286, 0.1263, 0.15084, 0, 0.11923, 0.76418, 0.11659, 0, 0.01427, 0.08213, 0.90359, 0, 0, 0, 0, 1]}

  - !<ColorSpace>
    name: Output - Rec.2020
    family: Output
    equalitygroup: ""
    bitdepth: 32f
    description: |
      ACES 1.0 Output - Rec.2020 Output Transform

      ACES Transform ID : urn:ampas:aces:transformId:v1.5:ODT.Academy.Rec2020_100nits_dim.a1.0.3
    isdata: false
    allocation: uniform
    allocationvars: [0, 1]
    to_reference: !<GroupTransform>
      children:
        - !<FileTransform> {src: InvRRT.Rec.2020.Log2_48_nits_Shaper.spi3d, interpolation: tetrahedral}
        - !<FileTransform> {src: Log2_48_nits_Shaper_to_linear.spi1d, interpolation: linear}
    from_reference: !<GroupTransform>
      children:
        - !<FileTransform> {src: Log2_48_nits_Shaper_to_linear.spi1d, interpolation: linear, direction: inverse}
        - !<FileTransform> {src: Log2_48_nits_Shaper.RRT.Rec.2020.spi3d, interpolation: tetrahedral}

  - !<ColorSpace>
    name: Output - Rec.709
    family: Output
    equalitygroup: ""
    bitdepth: 32f
    description: |
      ACES 1.0 Output - Rec.709 Output Transform

      ACES Transform ID : urn:ampas:aces:transformId:v1.5:ODT.Academy.Rec709_100nits_dim.a1.0.3
    isdata: false
    allocation: uniform
    allocationvars: [0, 1]
    to_reference: !<GroupTransform>
      children:
        - !<FileTransform> {src: InvRRT.Rec.709.Log2_48_nits_Shaper.spi3d, interpolation: tetrahedral}
        - !<FileTransform> {src: Log2_48_nits_Shaper_to_linear.spi1d, interpolation: linear}
    from_reference: !<GroupTransform>
      children:
        - !<FileTransform> {src: Log2_48_nits_Shaper_to_linear.spi1d, interpolation: linear, direction: inverse}
        - !<FileTransform> {src: Log2_48_nits_Shaper.RRT.Rec.709.spi3d, interpolation: tetrahedral}

  - !<ColorSpace>
    name: Output - sRGB
    family: Output
    equalitygroup: ""
    bitdepth: 32f
    description: |
      ACES 1.0 Output - sRGB Output Transform

      ACES Transform ID : urn:ampas:aces:transformId:v1.5:ODT.Academy.RGBmonitor_100nits_dim.a1.0.3
    isdata: false
    allocation: uniform
    allocationvars: [0, 1]
    to_reference: !<GroupTransform>
      children:
        - !<FileTransform> {src: InvRRT.sRGB.Log2_48_nits_Shaper.spi3d, interpolation: tetrahedral}
        - !<FileTransform> {src: Log2_48_nits_Shaper_to_linear.spi1d, interpolation: linear}
    from_reference: !<GroupTransform>
      children:
        - !<FileTransform> {src: Log2_48_nits_Shaper_to_linear.spi1d, interpolation: linear, direction: inverse}
        - !<FileTransform> {src: Log2_48_nits_Shaper.RRT.sRGB.spi3d, interpolation: tetrahedral}

  - !<ColorSpace>
    name: Utility - LMT Shaper
    family: Utility
    equalitygroup: LMT Shaper
    bitdepth: 32f
    description: |
      The LMT Shaper color space
    isdata: false
    allocation: uniform
    allocationvars: [0, 1]
    to_reference: !<FileTransform> {src: LMT_Shaper_to_linear.spi1d, interpolation: linear}

  - !<ColorSpace>
    name: Utility - Linear - Adobe RGB
    family: Utility
    equalitygroup: Linear - Adobe RGB
    bitdepth: 32f
    description: |
      The Linear - Adobe RGB color space
    isdata: false
    allocation: lg2
    allocationvars: [-8, 5, 0.00390625]
    from_reference: !<MatrixTransform> {matrix: [1.72456, -0.419994, -0.304567, 0, -0.27648, 1.37272, -0.0962392, 0, -0.0261255, -0.0901748, 1.1163, 0, 0, 0, 0, 1]}

  - !<ColorSpace>
    name: Utility - Linear - Adobe Wide Gamut RGB
    family: Utility
    equalitygroup: Linear - Adobe Wide Gamut RGB
    bitdepth: 32f
    description: |
      The Linear - Adobe Wide Gamut RGB color space
    isdata: false
    allocation: lg2
    allocationvars: [-8, 5, 0.00390625]
    from_reference: !<MatrixTransform> {matrix: [1.38098, -0.115859, -0.265122, 0, 0.00570155, 1.04029, -0.0459965, 0, -0.00389087, -0.0597092, 1.0636, 0, 0, 0, 0, 1]}

  - !<ColorSpace>
    name: Utility - Linear - sRGB (HDRIs)
    family: Utility
    equalitygroup: Linear - sRGB
    bitdepth: 32f
    description: |
      The Linear - sRGB color space
    isdata: false
    allocation: lg2
    allocationvars: [-8, 5, 0.00390625]
    from_reference: !<GroupTransform>
      children:
        - !<MatrixTransform> {matrix: [0.952552, 0, 9.36786e-05, 0, 0.343966, 0.728166, -0.0721325, 0, 0, 0, 1.00883, 0, 0, 0, 0, 1]}
        - !<MatrixTransform> {matrix: [3.2096, -1.55743, -0.495805, 0, -0.970989, 1.88517, 0.0394894, 0, 0.0597193, -0.210104, 1.14312, 0, 0, 0, 0, 1]}

  - !<ColorSpace>
    name: Utility - sRGB - Texture (JPG, PNG)
    family: Utility
    equalitygroup: sRGB - Texture
    bitdepth: 32f
    description: |
      The sRGB - Texture color space
    isdata: false
    allocation: uniform
    allocationvars: [0, 1]
    from_reference: !<GroupTransform>
      children:
        - !<MatrixTransform> {matrix: [0.952552, 0, 9.36786e-05, 0, 0.343966, 0.728166, -0.0721325, 0, 0, 0, 1.00883, 0, 0, 0, 0, 1]}
        - !<MatrixTransform> {matrix: [3.2096, -1.55743, -0.495805, 0, -0.970989, 1.88517, 0.0394894, 0, 0.0597193, -0.210104, 1.14312, 0, 0, 0, 0, 1]}
        - !<FileTransform> {src: linear_to_sRGB.spi1d, interpolation: linear}

  - !<ColorSpace>
    name: Utility - Raw (Non-Color Textures)
    family: Utility
    equalitygroup: Raw
    bitdepth: 32f
    description: |
      The Raw color space
    isdata: true
    allocation: uniform
    allocationvars: [0, 1]

  - !<ColorSpace>
    name: Utility - Raw
    family: Utility
    equalitygroup: Raw
    bitdepth: 32f
    description: |
      The Raw color space
    isdata: true
    allocation: uniform
    allocationvars: [0, 1]

looks:
  - !<Look>
    name: Very High Contrast
    process_space: Filmic Log
    transform: !<GroupTransform>
        children:
            - !<FileTransform> {src: filmic_to_1.20_1-00.spi1d, interpolation: linear}
            - !<FileTransform> {src: filmic_to_0-70_1-03.spi1d, interpolation: linear, direction: inverse}

  - !<Look>
    name: High Contrast
    process_space: Filmic Log
    transform: !<GroupTransform>
        children:
            - !<FileTransform> {src: filmic_to_0.99_1-0075.spi1d, interpolation: linear}
            - !<FileTransform> {src: filmic_to_0-70_1-03.spi1d, interpolation: linear, direction: inverse}

  - !<Look>
    name: Medium High Contrast
    process_space: Filmic Log
    transform: !<GroupTransform>
        children:
            - !<FileTransform> {src: filmic_to_0-85_1-011.spi1d, interpolation: best}
            - !<FileTransform> {src: filmic_to_0-70_1-03.spi1d, interpolation: linear, direction: inverse}

  - !<Look>
    name: Medium Contrast
    process_space: Filmic Log
    transform: !<GroupTransform>
        children:

  - !<Look>
    name: Medium Low Contrast
    process_space: Filmic Log
    transform: !<GroupTransform>
        children:
            - !<FileTransform> {src: filmic_to_0-60_1-04.spi1d, interpolation: linear}
            - !<FileTransform> {src: filmic_to_0-70_1-03.spi1d, interpolation: linear, direction: inverse}

  - !<Look>
    name: Low Contrast
    process_space: Filmic Log
    transform: !<GroupTransform>
        children:
            - !<FileTransform> {src: filmic_to_0-48_1-09.spi1d, interpolation: linear}
            - !<FileTransform> {src: filmic_to_0-70_1-03.spi1d, interpolation: linear, direction: inverse}

  - !<Look>
    name: Very Low Contrast
    process_space: Filmic Log
    transform: !<GroupTransform>
        children:
            - !<FileTransform> {src: filmic_to_0-35_1-30.spi1d, interpolation: linear}
            - !<FileTransform> {src: filmic_to_0-70_1-03.spi1d, interpolation: linear, direction: inverse}
